img/icons/user/Suitcase.svg

<svg width="19" height="19" viewBox="0 0 19 19" fill="none" xmlns="http://www.w3.org/2000/svg">
<path d="M2.75 8.71762V11.6C2.75 12.44 2.75 12.8602 2.91349 13.181C3.0573 13.4633 3.2866 13.6927 3.56885 13.8365C3.88972 14 4.31007 14 5.15015 14H13.8501C14.6902 14 15.11 14 15.4308 13.8365C15.7131 13.6927 15.9429 13.4633 16.0867 13.181C16.2502 12.8602 16.25 12.44 16.25 11.6V8.71762M2.75 8.71762V6.39996C2.75 5.55988 2.75 5.1399 2.91349 4.81903C3.0573 4.53679 3.2866 4.3073 3.56885 4.16349C3.88972 4 4.31007 4 5.15015 4H13.8501C14.6902 4 15.11 4 15.4308 4.16349C15.7131 4.3073 15.9429 4.53679 16.0867 4.81903C16.2502 5.1399 16.25 5.55988 16.25 6.39996V8.71762M2.75 8.71762H16.25M9.51537 7.71986V9.83489" stroke="#8C8D92" stroke-width="1.5" stroke-linecap="round" stroke-linejoin="round"/>
</svg>

<svg width="19" height="19" fill="none" xmlns="http://www.w3.org/2000/svg"><path d="M2.75 8.718V11.6c0 .84 0 1.26.163 1.581a1.5 1.5 0 0 0 .656.655C3.889 14 4.31 14 5.15 14h8.7c.84 0 1.26 0 1.58-.164a1.5 1.5 0 0 0 .657-.655c.163-.32.163-.741.163-1.581V8.718m-13.5 0V6.4c0-.84 0-1.26.163-1.581a1.5 1.5 0 0 1 .656-.656C3.889 4 4.31 4 5.15 4h8.7c.84 0 1.26 0 1.58.163a1.5 1.5 0 0 1 .657.656c.163.32.163.74.163 1.581v2.318m-13.5 0h13.5M9.515 7.72v2.115" stroke="#8C8D92" stroke-width="1.5" stroke-linecap="round" stroke-linejoin="round"/></svg>
